assets/stickers/emoticons/stickers/imgly_sticker_emoticons_sunbathing.svg

<svg height="58" viewBox="0 0 62 58" width="62" xmlns="http://www.w3.org/2000/svg"><g fill="none"><path d="m61.3 34.5c0 13-11.9 23.5-30.3 23.5s-30.3-10.5-30.3-23.5 11.9-32.5 30.3-32.5 30.3 19.5 30.3 32.5z" fill="#f7910b"/><path d="m61.3 34.5c0 13-11.9 19.5-30.3 19.5s-30.3-6.5-30.3-19.5 11.9-34.5 30.3-34.5 30.3 21.5 30.3 34.5z" fill="#f7910b"/><path d="m31 0c18.4 0 30.3 21.5 30.3 34.5s-11.9 19.5-30.3 19.5" fill="#f9a908"/><path d="m61.3 34.5c0 13-11.9 19.5-30.3 19.5s-30.3-6.5-30.3-19.5 11.9-32.5 30.3-32.5 30.3 19.5 30.3 32.5z" fill="#f9a908"/><path d="m.7 34.5c0-13 11.9-32.5 30.3-32.5" fill="#f9c55d"/><path d="m31 2c18.4 0 30.3 19.5 30.3 32.5s-11.9 23.5-30.3 23.5" fill="#f7910b"/><path d="m31 2c18.4 0 30.3 19.5 30.3 32.5" fill="#ea7103"/><g transform="translate(11 15)"><path d="m15.8 2.6c0 1.2-3.5.7-7.8.7s-7.8.6-7.8-.7 3.5-2.2 7.8-2.2 7.8 1 7.8 2.2z" fill="#f9c55d"/><path d="m39.8 2.6c0 1.2-3.5.7-7.8.7s-7.8.6-7.8-.7 3.5-2.2 7.8-2.2 7.8 1 7.8 2.2z" fill="#f9a908"/></g><circle cx="9.3" cy="31.5" fill="#f7910b" r="1"/><circle cx="4.8" cy="33.5" fill="#f7910b" r="1.1"/><circle cx="7.8" cy="29.5" fill="#f7910b" r="1"/><circle cx="12.4" cy="31.3" fill="#f7910b" r="1"/><circle cx="51.6" cy="31.8" fill="#f9a908" r="1"/><circle cx="54.1" cy="33.2" fill="#f9a908" r="1"/><circle cx="48.8" cy="24.4" fill="#f9a908" r="1"/><circle cx="48.3" cy="36" fill="#f9a908" r="1.3"/><circle cx="55.5" cy="36.1" fill="#f9a908" r="1"/><circle cx="8.3" cy="35.5" fill="#f7910b" r="1"/><circle cx="9.1" cy="27.1" fill="#f7910b" r="1"/><g fill="#f9a908"><circle cx="3.8" cy="13.3" r="1.1"/><circle cx="7" cy="9.8" r="1"/><circle cx="58.2" cy="15.7" r="1"/><circle cx="57.4" cy="12.8" r="1"/><circle cx="60" cy="13.3" r="1"/><circle cx="5" cy="16.3" r="1"/></g><g transform="translate(37 12)"><path d="m9.3 5.8c-.4 0-.8-.2-1.2-.5-1.4-1.4-3.7-1.4-5.1 0-.6.6-1.7.7-2.3 0-.6-.6-.7-1.7 0-2.3 2.7-2.7 7.1-2.7 9.8 0 .6.6.6 1.7 0 2.3-.4.4-.8.5-1.2.5z" fill="#1e4784"/><path d="m10.4 3c.6.6.6 1.7 0 2.3-.3.3-.7.5-1.2.5-.4 0-.8-.2-1.2-.5-1.4-1.4-3.7-1.4-5.1 0-.6.6-1.7.7-2.3 0-.6-.6-.7-1.7 0-2.3" fill="#02243e"/></g><g transform="translate(14 12)"><path d="m1.7 5.8c.4 0 .8-.2 1.2-.5 1.4-1.4 3.7-1.4 5.1 0 .6.6 1.7.7 2.3 0 .6-.6.7-1.7 0-2.3-2.7-2.7-7.1-2.7-9.8 0-.6.6-.6 1.7 0 2.3.4.4.8.5 1.2.5z" fill="#1e4784"/><path d="m.6 3c-.6.6-.6 1.7 0 2.3.3.3.7.5 1.2.5.4 0 .8-.2 1.2-.5 1.4-1.4 3.7-1.4 5.1 0 .6.6 1.7.7 2.3 0 .6-.6.7-1.7 0-2.3" fill="#02243e"/></g><g fill="#037a66" transform="translate(17 6)"><path d="m7.6 1.8c.3.9-1.4.9-3.3 1.5s-3.3 1.5-3.6.6 1-2.1 2.9-2.7 3.7-.3 4 .6z"/><path d="m20.4 1.8c-.3.9 1.4.9 3.3 1.5s3.3 1.5 3.6.6-1-2.1-2.9-2.7-3.7-.3-4 .6z"/></g><g transform="translate(1 23)"><path d="m26.5 20c0 3.8-4.7 4.7-10.5 4.7s-10.5-3.1-10.5-6.8c0-3.8 1.7-10.2 7.5-10.2s13.5 8.5 13.5 12.3z" fill="#069ace"/><path d="m26.5 20c0 3.8-4.7 4.7-10.5 4.7s-10.5-3.1-10.5-6.8" fill="#0974af"/><g fill="#eaa4cb"><circle cx="12.4" cy="12.7" r="1.6"/><circle cx="18.4" cy="15.4" r="1.6"/><circle cx="12.5" cy="18.6" r="1.6"/><circle cx="18.9" cy="21" r="1.6"/></g><path d="m9.6 10.6c.3.4.2 1-.2 1.4-.4.3-1 .2-1.4-.2l-7.2-9.9c-.3-.4-.2-1 .2-1.4.4-.3 1-.2 1.4.2z" fill="#069ace"/><path d="m16.2 21.3c.6 0 1.1.5 1.1 1.1 0 .6-.5 1.1-1.1 1.1l-13.6.2c-.6 0-1.1-.5-1.1-1.1 0-.6.5-1.1 1.1-1.1z" fill="#0974af"/><g transform="translate(33)"><path d="m.5 20c0 3.8 4.7 4.7 10.5 4.7s10.5-3.1 10.5-6.8c0-3.8-1.7-10.2-7.5-10.2-5.8-.1-13.5 8.5-13.5 12.3z" fill="#069ace"/><path d="m.5 20c0 3.8 4.7 4.7 10.5 4.7s10.5-3.1 10.5-6.8" fill="#0974af"/><g fill="#eaa4cb"><circle cx="14.6" cy="12.7" r="1.6"/><circle cx="8.6" cy="15.4" r="1.6"/><circle cx="14.5" cy="18.6" r="1.6"/><circle cx="8.1" cy="21" r="1.6"/></g><path d="m17.4 10.6c-.3.4-.2 1 .2 1.4.4.3 1 .2 1.4-.2l7.2-9.9c.3-.4.2-1-.2-1.4-.4-.3-1-.2-1.4.2z" fill="#069ace"/><path d="m10.8 21.3c-.6 0-1.1.5-1.1 1.1 0 .6.5 1.1 1.1 1.1l13.6.2c.6 0 1.1-.5 1.1-1.1 0-.6-.5-1.1-1.1-1.1z" fill="#0974af"/></g><path d="m36 21c0 .6-.4 1-1 1h-11c-.6 0-1-.4-1-1 0-.6.4-1 1-1h11c.6 0 1 .4 1 1z" fill="#0974af"/></g><path d="m36.2 22.4c0 1.2-2.3 2.2-5.2 2.2s-5.3-1-5.3-2.2 2.4-.2 5.3-.2 5.2-1.1 5.2.2z" fill="#99144a"/></g></svg>

<?xml version="1.0" encoding="UTF-8"?>
<svg width="62px" height="58px" viewBox="0 0 62 58" version="1.1" xmlns="http://www.w3.org/2000/svg" xmlns:xlink="http://www.w3.org/1999/xlink">
    <!-- Generator: Sketch 43.1 (39012) - http://www.bohemiancoding.com/sketch -->
    <title>imgly_sticker_emoticons_sunbathing</title>
    <desc>Created with Sketch.</desc>
    <defs></defs>
    <g id="Page-1" stroke="none" stroke-width="1" fill="none" fill-rule="evenodd">
        <g id="sunbathing" fill-rule="nonzero">
            <g id="Group">
                <g>
                    <g>
                        <path d="M61.3,34.5 C61.3,47.5 49.4,58 31,58 C12.6,58 0.7,47.5 0.7,34.5 C0.7,21.5 12.6,2 31,2 C49.4,2 61.3,21.5 61.3,34.5 Z" id="Shape" fill="#F7910B"></path>
                        <path d="M61.3,34.5 C61.3,47.5 49.4,54 31,54 C12.6,54 0.7,47.5 0.7,34.5 C0.7,21.5 12.6,0 31,0 C49.4,0 61.3,21.5 61.3,34.5 Z" id="Shape" fill="#F7910B"></path>
                        <path d="M31,0 C49.4,0 61.3,21.5 61.3,34.5 C61.3,47.5 49.4,54 31,54" id="Shape" fill="#F9A908"></path>
                        <path d="M61.3,34.5 C61.3,47.5 49.4,54 31,54 C12.6,54 0.7,47.5 0.7,34.5 C0.7,21.5 12.6,2 31,2 C49.4,2 61.3,21.5 61.3,34.5 Z" id="Shape" fill="#F9A908"></path>
                        <path d="M0.7,34.5 C0.7,21.5 12.6,2 31,2" id="Shape" fill="#F9C55D"></path>
                        <path d="M31,2 C49.4,2 61.3,21.5 61.3,34.5 C61.3,47.5 49.4,58 31,58" id="Shape" fill="#F7910B"></path>
                        <path d="M31,2 C49.4,2 61.3,21.5 61.3,34.5" id="Shape" fill="#EA7103"></path>
                        <g transform="translate(11.000000, 15.000000)" id="Shape">
                            <path d="M15.8,2.6 C15.8,3.8 12.3,3.3 8,3.3 C3.7,3.3 0.2,3.9 0.2,2.6 C0.2,1.3 3.7,0.4 8,0.4 C12.3,0.4 15.8,1.4 15.8,2.6 Z" fill="#F9C55D"></path>
                            <path d="M39.8,2.6 C39.8,3.8 36.3,3.3 32,3.3 C27.7,3.3 24.2,3.9 24.2,2.6 C24.2,1.3 27.7,0.4 32,0.4 C36.3,0.4 39.8,1.4 39.8,2.6 Z" fill="#F9A908"></path>
                        </g>
                        <circle id="Oval" fill="#F7910B" cx="9.3" cy="31.5" r="1"></circle>
                        <circle id="Oval" fill="#F7910B" cx="4.8" cy="33.5" r="1.1"></circle>
                        <circle id="Oval" fill="#F7910B" cx="7.8" cy="29.5" r="1"></circle>
                        <circle id="Oval" fill="#F7910B" cx="12.4" cy="31.3" r="1"></circle>
                        <circle id="Oval" fill="#F9A908" cx="51.6" cy="31.8" r="1"></circle>
                        <circle id="Oval" fill="#F9A908" cx="54.1" cy="33.2" r="1"></circle>
                        <circle id="Oval" fill="#F9A908" cx="48.8" cy="24.4" r="1"></circle>
                        <circle id="Oval" fill="#F9A908" cx="48.3" cy="36" r="1.3"></circle>
                        <circle id="Oval" fill="#F9A908" cx="55.5" cy="36.1" r="1"></circle>
                        <circle id="Oval" fill="#F7910B" cx="8.3" cy="35.5" r="1"></circle>
                        <circle id="Oval" fill="#F7910B" cx="9.1" cy="27.1" r="1"></circle>
                        <circle id="Oval" fill="#F9A908" cx="3.8" cy="13.3" r="1.1"></circle>
                        <circle id="Oval" fill="#F9A908" cx="7" cy="9.8" r="1"></circle>
                        <circle id="Oval" fill="#F9A908" cx="58.2" cy="15.7" r="1"></circle>
                        <circle id="Oval" fill="#F9A908" cx="57.4" cy="12.8" r="1"></circle>
                        <circle id="Oval" fill="#F9A908" cx="60" cy="13.3" r="1"></circle>
                        <circle id="Oval" fill="#F9A908" cx="5" cy="16.3" r="1"></circle>
                    </g>
                    <g transform="translate(14.000000, 12.000000)" id="Shape">
                        <g transform="translate(23.000000, 0.000000)">
                            <path d="M9.3,5.8 C8.9,5.8 8.5,5.6 8.1,5.3 C6.7,3.9 4.4,3.9 3,5.3 C2.4,5.9 1.3,6 0.7,5.3 C0.1,4.7 -1.77080572e-14,3.6 0.7,3 C3.4,0.3 7.8,0.3 10.5,3 C11.1,3.6 11.1,4.7 10.5,5.3 C10.1,5.7 9.7,5.8 9.3,5.8 Z" fill="#1E4784"></path>
                            <path d="M10.4,3 C11,3.6 11,4.7 10.4,5.3 C10.1,5.6 9.7,5.8 9.2,5.8 C8.8,5.8 8.4,5.6 8,5.3 C6.6,3.9 4.3,3.9 2.9,5.3 C2.3,5.9 1.2,6 0.6,5.3 C-1.06026299e-14,4.7 -0.1,3.6 0.6,3" fill="#02243E"></path>
                        </g>
                        <g>
                            <path d="M1.7,5.8 C2.1,5.8 2.5,5.6 2.9,5.3 C4.3,3.9 6.6,3.9 8,5.3 C8.6,5.9 9.7,6 10.3,5.3 C10.9,4.7 11,3.6 10.3,3 C7.6,0.3 3.2,0.3 0.5,3 C-0.1,3.6 -0.1,4.7 0.5,5.3 C0.9,5.7 1.3,5.8 1.7,5.8 Z" fill="#1E4784"></path>
                            <path d="M0.6,3 C-1.33226763e-15,3.6 -1.33226763e-15,4.7 0.6,5.3 C0.9,5.6 1.3,5.8 1.8,5.8 C2.2,5.8 2.6,5.6 3,5.3 C4.4,3.9 6.7,3.9 8.1,5.3 C8.7,5.9 9.8,6 10.4,5.3 C11,4.7 11.1,3.6 10.4,3" fill="#02243E"></path>
                        </g>
                    </g>
                </g>
                <g transform="translate(17.000000, 6.000000)" id="Shape" fill="#037A66">
                    <path d="M7.6,1.8 C7.9,2.7 6.2,2.7 4.3,3.3 C2.4,3.9 1,4.8 0.7,3.9 C0.4,3 1.7,1.8 3.6,1.2 C5.5,0.6 7.3,0.9 7.6,1.8 Z"></path>
                    <path d="M20.4,1.8 C20.1,2.7 21.8,2.7 23.7,3.3 C25.6,3.9 27,4.8 27.3,3.9 C27.6,3 26.3,1.8 24.4,1.2 C22.5,0.6 20.7,0.9 20.4,1.8 Z"></path>
                </g>
            </g>
            <g id="Group" transform="translate(1.000000, 23.000000)">
                <g>
                    <g>
                        <path d="M26.5,20 C26.5,23.8 21.8,24.7 16,24.7 C10.2,24.7 5.5,21.6 5.5,17.9 C5.5,14.1 7.2,7.7 13,7.7 C18.8,7.7 26.5,16.2 26.5,20 Z" id="Shape" fill="#069ACE"></path>
                        <path d="M26.5,20 C26.5,23.8 21.8,24.7 16,24.7 C10.2,24.7 5.5,21.6 5.5,17.9" id="Shape" fill="#0974AF"></path>
                        <circle id="Oval" fill="#EAA4CB" cx="12.4" cy="12.7" r="1.6"></circle>
                        <circle id="Oval" fill="#EAA4CB" cx="18.4" cy="15.4" r="1.6"></circle>
                        <circle id="Oval" fill="#EAA4CB" cx="12.5" cy="18.6" r="1.6"></circle>
                        <circle id="Oval" fill="#EAA4CB" cx="18.9" cy="21" r="1.6"></circle>
                        <path d="M9.6,10.6 C9.9,11 9.8,11.6 9.4,12 L9.4,12 C9,12.3 8.4,12.2 8,11.8 L0.8,1.9 C0.5,1.5 0.6,0.9 1,0.5 L1,0.5 C1.4,0.2 2,0.3 2.4,0.7 L9.6,10.6 Z" id="Shape" fill="#069ACE"></path>
                        <path d="M16.2,21.3 C16.8,21.3 17.3,21.8 17.3,22.4 L17.3,22.4 C17.3,23 16.8,23.5 16.2,23.5 L2.6,23.7 C2,23.7 1.5,23.2 1.5,22.6 L1.5,22.6 C1.5,22 2,21.5 2.6,21.5 L16.2,21.3 Z" id="Shape" fill="#0974AF"></path>
                    </g>
                    <g transform="translate(33.000000, 0.000000)">
                        <path d="M0.5,20 C0.5,23.8 5.2,24.7 11,24.7 C16.8,24.7 21.5,21.6 21.5,17.9 C21.5,14.1 19.8,7.7 14,7.7 C8.2,7.6 0.5,16.2 0.5,20 Z" id="Shape" fill="#069ACE"></path>
                        <path d="M0.5,20 C0.5,23.8 5.2,24.7 11,24.7 C16.8,24.7 21.5,21.6 21.5,17.9" id="Shape" fill="#0974AF"></path>
                        <circle id="Oval" fill="#EAA4CB" cx="14.6" cy="12.7" r="1.6"></circle>
                        <circle id="Oval" fill="#EAA4CB" cx="8.6" cy="15.4" r="1.6"></circle>
                        <circle id="Oval" fill="#EAA4CB" cx="14.5" cy="18.6" r="1.6"></circle>
                        <circle id="Oval" fill="#EAA4CB" cx="8.1" cy="21" r="1.6"></circle>
                        <path d="M17.4,10.6 C17.1,11 17.2,11.6 17.6,12 L17.6,12 C18,12.3 18.6,12.2 19,11.8 L26.2,1.9 C26.5,1.5 26.4,0.9 26,0.5 L26,0.5 C25.6,0.2 25,0.3 24.6,0.7 L17.4,10.6 Z" id="Shape" fill="#069ACE"></path>
                        <path d="M10.8,21.3 C10.2,21.3 9.7,21.8 9.7,22.4 L9.7,22.4 C9.7,23 10.2,23.5 10.8,23.5 L24.4,23.7 C25,23.7 25.5,23.2 25.5,22.6 L25.5,22.6 C25.5,22 25,21.5 24.4,21.5 L10.8,21.3 Z" id="Shape" fill="#0974AF"></path>
                    </g>
                </g>
                <path d="M36,21 C36,21.6 35.6,22 35,22 L24,22 C23.4,22 23,21.6 23,21 L23,21 C23,20.4 23.4,20 24,20 L35,20 C35.6,20 36,20.4 36,21 L36,21 Z" id="Shape" fill="#0974AF"></path>
            </g>
            <path d="M36.2,22.4 C36.2,23.6 33.9,24.6 31,24.6 C28.1,24.6 25.7,23.6 25.7,22.4 C25.7,21.2 28.1,22.2 31,22.2 C33.9,22.2 36.2,21.1 36.2,22.4 Z" id="Shape" fill="#99144A"></path>
        </g>
    </g>
</svg>
